public/avatar/item1/9.svg

<svg xmlns:xlink="http://www.w3.org/1999/xlink" height="65.4" width="80.15" xmlns="http://www.w3.org/2000/svg"><use height="24.1" transform="translate(40.2 25.45)" width="7.9" xlink:href="#a"/><defs><g id="a" fill-rule="evenodd"><path d="m12.5 29.75 1.5-.25q.75 2.5 2 3.25.5.25.5.75-.2 1.75-1.5 2.25l-2-.25q-2.7-1.75-3.25-5.75h1.5q.5 3.25 2.5 4.25l.75.25.25-.5q-1.45-1.75-2.25-4" fill="#001632" transform="translate(-8.6 -11.65)"/><path d="m12.5 14.5.25-1.95q0-.5.55-.8.25-.25.95.3Q16.3 14.5 15.5 17 13 25 14 29.5l-1.5.25-.25-3.25q0-4.25 2-10v-.7L14 14.75v.3Q10.55 26 11.25 29.75h-1.5q-.5-5 2.75-15.25" fill="#00275b" transform="translate(-8.6 -11.65)"/><path d="M10.55 23q3.95-1.25 3.95 2.25 0 1.75-3.7 1.75-1.3 0-1.8-1.75-.5-.5 1.55-2.25" transform="translate(-8.6 -11.65)"/><path d="M13.3 29.75h-2.75q-.55-5 2.75-15l.25-2.2q1.95 2.2 1.45 4.2-2.75 8-1.7 13" fill="#00bdc4" transform="translate(-8.6 -11.65)"/><path d="M13.3 29.75q.7 3 2.45 3.75-.5 2.5-2.45 1.2-2.3-1.2-2.75-4.95h2.75" fill="#009da3" transform="translate(-8.6 -11.65)"/><path d="M13.55 18.55q-2.05 5.25-.8 10.95h-1q-1.2-6.25.75-11.2l1.5-3.8.75.8-1.2 3.25" fill="#b2e396" transform="translate(-8.6 -11.65)"/><path d="M13.3 31.75 15.25 34l-.75.5q-.95 0-2-2.25l-.75-2.75h1q0 1 .55 2.25" fill="#99b87d" transform="translate(-8.6 -11.65)"/><path d="m14 23.8-2.5-.55q-2-.25-1.5 3l3.3.25q1.2 0 .7-2.7m-5.25.45q.75-2.5 2.5-2.25 3.75.25 4 1 .25 4.75-1.7 4.75L8.75 27q-.25-1.75 0-2.75" fill="#001032" transform="translate(-8.6 -11.65)"/><path d="M14 25.5q.25-.25 1-.25 0 1-.75 2l-3 .25q0-.7 1-.7l1.3-.3.45-1M9.25 23q.75-1.7 3.5-.75L12 23q-1-.5-1.45.25-.55 1-1.3-.25" fill="#002677" transform="translate(-8.6 -11.65)"/></g></defs></svg>

<?xml version="1.0" encoding="UTF-8" standalone="no"?>
<svg xmlns:xlink="http://www.w3.org/1999/xlink" height="65.4px" width="80.15px" xmlns="http://www.w3.org/2000/svg">
  <g transform="matrix(1.0, 0.0, 0.0, 1.0, 31.6, 13.8)">
    <use height="24.1" transform="matrix(1.0, 0.0, 0.0, 1.0, 8.6, 11.65)" width="7.9" xlink:href="#shape0"/>
  </g>
  <defs>
    <g id="shape0" transform="matrix(1.0, 0.0, 0.0, 1.0, -8.6, -11.65)">
      <path d="M12.5 29.75 L14.0 29.5 Q14.75 32.0 16.0 32.75 16.5 33.0 16.5 33.5 16.3 35.25 15.0 35.75 L13.0 35.5 Q10.3 33.75 9.75 29.75 L11.25 29.75 Q11.75 33.0 13.75 34.0 L14.5 34.25 14.75 33.75 Q13.3 32.0 12.5 29.75" fill="#001632" fill-rule="evenodd" stroke="none"/>
      <path d="M12.5 14.5 L12.75 12.55 Q12.75 12.05 13.3 11.75 13.55 11.5 14.25 12.05 16.3 14.5 15.5 17.0 13.0 25.0 14.0 29.5 L12.5 29.75 12.25 26.5 Q12.25 22.25 14.25 16.5 L14.25 15.8 14.0 14.75 14.0 15.05 Q10.55 26.0 11.25 29.75 L9.75 29.75 Q9.25 24.75 12.5 14.5" fill="#00275b" fill-rule="evenodd" stroke="none"/>
      <path d="M10.55 23.0 Q14.5 21.75 14.5 25.25 14.5 27.0 10.8 27.0 9.5 27.0 9.0 25.25 8.5 24.75 10.55 23.0" fill="#000000" fill-rule="evenodd" stroke="none"/>
      <path d="M13.3 29.75 L10.55 29.75 Q10.0 24.75 13.3 14.75 L13.55 12.55 Q15.5 14.75 15.0 16.75 12.25 24.75 13.3 29.75" fill="#00bdc4" fill-rule="evenodd" stroke="none"/>
      <path d="M13.3 29.75 Q14.0 32.75 15.75 33.5 15.25 36.0 13.3 34.7 11.0 33.5 10.55 29.75 L13.3 29.75" fill="#009da3" fill-rule="evenodd" stroke="none"/>
      <path d="M13.55 18.55 Q11.5 23.8 12.75 29.5 L11.75 29.5 Q10.55 23.25 12.5 18.3 L14.0 14.5 14.75 15.3 13.55 18.55" fill="#b2e396" fill-rule="evenodd" stroke="none"/>
      <path d="M13.3 31.75 L15.25 34.0 14.5 34.5 Q13.55 34.5 12.5 32.25 L11.75 29.5 12.75 29.5 Q12.75 30.5 13.3 31.75" fill="#99b87d" fill-rule="evenodd" stroke="none"/>
      <path d="M14.0 23.8 L11.5 23.25 Q9.5 23.0 10.0 26.25 L13.3 26.5 Q14.5 26.5 14.0 23.8 M8.75 24.25 Q9.5 21.75 11.25 22.0 15.0 22.25 15.25 23.0 15.5 27.75 13.55 27.75 L8.75 27.0 Q8.5 25.25 8.75 24.25" fill="#001032" fill-rule="evenodd" stroke="none"/>
      <path d="M14.0 25.5 Q14.25 25.25 15.0 25.25 15.0 26.25 14.25 27.25 L11.25 27.5 Q11.25 26.8 12.25 26.8 L13.55 26.5 14.0 25.5" fill="#002677" fill-rule="evenodd" stroke="none"/>
      <path d="M9.25 23.0 Q10.0 21.3 12.75 22.25 L12.0 23.0 Q11.0 22.5 10.55 23.25 10.0 24.25 9.25 23.0" fill="#002677" fill-rule="evenodd" stroke="none"/>
    </g>
  </defs>
</svg>
